X:1
T:The Crowning Day
T:The Crowning Day
T:Levi White
T:Thomas O. Blair, 1889
T:Public Domain Courtesy of the Cyber Hymnal™
T:Public Domain Courtesy of the Cyber Hymnal™
C:Levi White
Z:Public Domain
Z:Courtesy of the Cyber Hymnal™
%%score ( 1 2 ) ( 3 4 )
L:1/8
Q:1/4=95
M:4/4
K:D
V:1 treble 
V:2 treble 
V:3 bass 
V:4 bass 
V:1
 D>[DF] | [FA]>[FA] [FA]>[FA] [GB]>[FA] [DF]>[DA] | [DF]6 [EG]>[DF] | %3
w: 1.~Are you|march- ing in the ar- my of our|king, To that|
w: 2.~Are you|fight- ing ’neath the ban- ner of the|cross, True and|
w: 3.~Hear the|Sav- ior’s voice a- bove the strife and|din, While the|
w: 4.~We’ll press|on- ward to that coun- try won- drous|fair, To that|
 [CE]>[CE] [CE]>[CE] [Ec]>[Ec] [GB]>[Gc] | [Fd]6 [DF]>[EG] | [FA]>[FA] [DF]>[FA] [Fd]2 [Fd]>[Fd] | %6
w: gold- en land of bliss be- yond the|sky? Ev- en|now His prais- es bring, Let the|
w: faith- ful to your Sav- ior till you|die? If sus-|tain- ing earth- ly loss, Know these|
w: fier- y darts of Sa- tan ’round you|fly! You the|vic- to- ry shall win, O- ver|
w: fair- y land of peace be- yond the|sky; Earth- ly|crowns can- not com- pare With the|
 [GB]>[FA] [FA]>[DF] [FA]2 [DF]>[FA] | [Fd]>[Fd] A>[GB] [FA]<[DF] [CE]>[CF] | D6 || %9
w: chor- us loud- ly ring, For the|crown- ing day is com- ing by and|by.|
w: trea- sures are but dross, And the|crown- ing day is com- ing by and|by.|
w: death, and hell, and sin, For the|crown- ing day is com- ing by and|by.|
w: crowns the saints shall wear, In the|crown- ing day that’s com- ing by and|by.|
"^Refrain" [DF]>[EG] | [FA]>[FA] [DF]>[FA] [Fd] [FA]2 [FA] | [GB]<[Gd] [Gd]>[GB] [FA]2 [DF]>[EG] | %12
w: |||
w: Oh, the|crown- ing day is com- ing, is|com- ing by and by, Yes, the|
w: |||
w: |||
 [FA]>[FA] [FA]>[GB] [FA] [DF]2 [DF] | [DF]>D D>[DF] [CE]2 [DF]>[EG] | %14
w: ||
w: crown- ing day is com- ing, is|com- ing by and by. There are|
w: ||
w: ||
 [FA]>[FA] [DF]>[FA] [Fd]2 [Fd]>[Fd] | [GB]>[FA] [FA]>[DF] [FA]2 [Ad]>[GB] | %16
w: ||
w: crowns for you and me! Crowns of|gold, by faith, we’ll see, Crowns and|
w: ||
w: ||
 [FA]>[DF] D>[DE] [DF]<[DF] [CF]>[CE] | D6 |] %18
w: ||
w: king- doms in a bet- ter world on|high.|
w: ||
w: ||
V:2
 D3/2 x/ | x8 | x8 | x8 | x8 | x8 | x8 | x2 A3/2 x9/2 | D6 || x2 | x8 | x8 | x8 | %13
 x3/2 D/ D3/2 x9/2 | x8 | x8 | x2 D3/2 x9/2 | D6 |] %18
V:3
 [D,F,]>[D,A,] | [D,A,]>[D,D] [D,D]>[D,D] [D,D]>[D,D] [D,A,]>[D,F,] | [D,A,]6 [D,A,]>[D,A,] | %3
 A,>A, A,>A, [B,,A,]>[A,,A,] [B,,A,]>[A,,A,] | [D,A,]6 [D,A,]>[D,A,] | %5
 [D,D]>[D,D] [D,D]>[D,D] [D,A,]2 [D,A,]>[D,A,] | [D,D]>[D,D] [D,D]>[D,D] [D,D]2 [D,D]>[D,D] | %7
 [D,D]>[D,D] [F,D]>[G,D] [A,D]<A, [A,,G,]>[A,,A,] | [D,F,]6 || [D,A,]>[D,A,] | %10
 [D,D]>[D,D] [D,D]>[D,D] [D,A,] [D,D]2 [D,D] | [G,D]<[G,B,] [G,B,]>[G,D] [D,D]2 [D,A,]>[D,A,] | %12
 [D,D]>[D,D] [D,D]>[D,D] [D,D] [D,A,]2 [D,A,] | %13
 [D,A,]>[D,G,] [D,F,]>[D,A,] [A,,A,]2 [D,A,]>[D,A,] | %14
 [D,D]>[D,D] [D,D]>[D,D] [D,A,]2 [D,A,]>[D,A,] | [D,D]>[D,D] [D,D]>[D,D] [D,D]2 [F,D]>[G,D] | %16
 [A,D]>A, [F,A,]>[G,B,] A,<A, [A,,A,]>[A,,G,] | [D,F,]6 |] %18
V:4
 x2 | x8 | x8 | A,>A, A,>A, x4 | x8 | x8 | x8 | x9/2 A,3/2 x2 | x6 || x2 | x8 | x8 | x8 | x8 | x8 | %15
 x8 | x3/2 A,/ x3/2 A,/ A,3/2 x5/2 | x6 |] %18

